X: 22076
T: Knocknagoshel, The
R: polka
M: 2/4
K: Gmajor
|:GD/D/ ED|GB d2|ed BG|A/B/A/G/ ED|
GD/D/ ED|GB d2|ed BA|1 G2 BA:|2 G4||
|:d2 dd|ed BG|c2 cc|ed Bc|
d2 dd|ed B2|AcBA|1 G2 Bc:|2 G2 BA||

